X:3196
T:Ka-Foo-Zalum
O:england
C:trad
M:4/4
L:1/8
K:G
|:d2d3/2c/2 B3/2c/2 d2|A3/2B/2c3/2B/2 A3/2B/2 c2|d3/2e/2d3/2c/2 B3/2c/2 d2|G3/2A/2B3/2G/2 A2G2:|
|:B3/2G/2D3/2G/2 B3/2G/2 B2|c3/2A/2F3/2A/2 c3/2A/2 c2|B3/2G/2D3/2G/2 B3/2G/2 B2|G3/2A/2B3/2G/2 A2G2:|
